X:1
T:The Father’s Care
T:S. B. Jackson
T:The Father’s Care
T:Public Domain
T:Public Domain
T:Public Domain
C:S. B. Jackson
Z:Public Domain
%%score ( 1 2 ) ( 3 4 )
L:1/8
M:4/4
K:C
V:1 treble 
V:2 treble 
V:3 bass 
V:4 bass 
V:1
 [EG] | [EG][CE][EA][EG] [Fc][FB][FB][FA] | [Ac][GB][GB][DF] ([^DA]2 [EG])[EG] | %3
w: 1.~’Neath|threat- ening clouds a lit- tle bird Flew|home- ward to its rest; * And|
w: 2.~So|white the snow on val- ley’s breast, So|bare the old oak tree; * The|
w: 3.~O|heart op- pressed with life’s sad woe, Doubt|not thy Fa- ther’s care. * No|
 [EG][CE][EA][EG] [Ec][DB][GB][Ac] | [^Fd][Ec][DB][CA] [B,G]3 G | [Bd][Ac][GB][FA] [Ac][GB][FA]G | %6
w: ’neath the leaves of shel- tering oak Slept|safe in down- y nest. Thro’|less storm of sum- mer night Was heard|
w: wind plays with a brok- en nest— O|bird, who cares for thee? A|of praise— a burst of joy— Brought Je-|
w: sor- row is to Him un- known, Its|an- guish He doth share. The|that marks the spar- row’s fall Shalt for|
 [Fd][E^c][Fd][^F^d] [Ge]3 [Ge] | [^Ge][GB][Gc][Bd] [Ad][Ac][^DB][DA] | [EG][Ec][Fd][Ec] [Ec]4 |: %9
w: wild des- pair, For great- er|than the tem- pest’s wrath, The Fa- ther’s|watch- ful care. * *|
w: words to me: “The Fa- ther|marks thy fall,” I cried, And His love|feed- eth thee. O the|
w: need pre- pare, For great- er|than thy life can tell, Thy Fa- ther’s|watch- ful care. * *|
"^Refrain" (3(GGG z) d (3cBc (3dcA x | (E>E (3EEE E2) [Gc]2 | [FB]3 [FB] [FA]2 [FB]2 | %12
w: |||
w: won- * * der- ful, won- der- ful love, That|fall; * * * * * hears|faint- est call. *|
w: |||
 (F>F E>E (3GGA (3Bcd) :| [FB]3 [Fd] [FA]2 [FB]2 | (E>E F>A [Ec]2) |] %15
w: |||
w: |||
w: |||
V:2
 x | x8 | x8 | x8 | x7 G | x7 G | x8 | x8 | x8 |: e3 G2 E2 F2 | G6 x2 | x8 | A2 G2- E2 x2 :| x8 | %14
w: ||||cease-|no|||||||||
w: ||||song|sus’||||marks the spar- row’s|my||||
w: ||||love|thy|||||||||
 c4- x2 |] %15
w: |
w: |
w: |
V:3
 z | z G,CG, z G,B,G, | z G,B,G, (z ^F,G,)C | z G,CG, z G,D^F, | z ^F,CF, (z D,G,)D, | %5
w: |~ ~ ~ ~ ~ ~|~ ~ ~ * * ~|~ ~ ~ ~ ~ ~|~ ~ ~ * * ~|
 G,,G,B,G, D,G,B,G, | G,,G,B,G, (C,G,C) z | E,,E,^G,E, [A,,A,]2 [^F,,^F,]2 | %8
w: * ~ ~ ~ ~ ~ ~ ~|~ ~ ~ ~ ~ * *|~ ~ ~ ~ ~ ~|
 [G,,G,]2 [G,B,]2 [C,G,C]4 |: (3[C,C][E,C][G,C] [C,C]2 [C,G,]2 [C,A,]2 x | %10
w: der- ful love,|O the love, the won- der-|
 [C,C]>[C,C] (3[C,C][E,C][G,C] C2 [E,C]2 | [G,D]3 [G,D] [G,D]2 [G,B,]2 | %12
w: ful love, ~ ~ ~ ~ ~|marks the spar- row’s|
 [C,C]>[C,C] [C,C]>[C,C] [C,C]2 z2 :| [G,D]3 [G,B,] [G,C]2 G,2 | %14
w: fall; ~ ~ ~ ~|~ my faint- est|
 [C,G,]>[C,C] [C,A,]>[C,C] [C,G,]2 |] %15
w: |
V:4
 x | C,4 D,4 | G,,4 C,4 | C,4 D,4 | D,4 G,,4 | G,,4 D,4 | G,,4 C,4 | E,,4 x4 | x8 |: x9 | x8 | x8 | %12
w: |~ ~|~ ~|~ ~|~ ~|~ ~|~ ~|Won-|||||
 x8 :| x6 G,2 | x6 |] %15
w: |call.||

